X: 1
T: reel de Lapin
C:
R: reel
Z: 2012 John Chambers <jc:trillian.mit.edu>
M: 2/4
L: 1/16
K: G
(3DEF |\
"G"G2Bd gagf | "C"edcB "Am"ABAF |\
[1,3 "D7"DEFG ABAF | "G"GFGB "D7"d2 :|\
[2,4 "D7"DEFG A2.e2 | "D7"dcBA "G"G2 :|
|: Bc |\
"G"dBGA BGBc | "G"dBGB "Am"A2AB |\
[1,3 "D7"cAFA DFAB | "D7"cAFA "G"d2 :|\
[2,4 "D7"cAFA D2.e2 | "D7"dcBA "G"G2 :|
